X:99020
T:Tarry a While
P:Tarry a While
C:Traditional
R:Jig (8x32)
B:RSCDS Gr-20
Z:Anselm Lingnau <anselm@strathspey.org>
M:6/8
L:1/8
K:Bb
F|"Bb"B>cB F2D|F2F F2d|"Cm"e>fe "Bb"dcB|"C7"d3 "F7"c2F|
  "Bb"B>cB F2D|F2F Fde|"Bb"fdB "F7"c2d|"Bb"B3 B2||
e|"Bb"d2f fed|"Cm"e2g cde|"Bb"d>cB "C7"BAB|"F"d>cA F2e|
  "Bb"d2f fed|"Cm"efg "F7"cde|"Bb"dcB "C7"BAB|"Bb"[d3B3F3] "F"[c3A3F3]|]
